!!!!SEGMENT: pl-kk--kk-i-6--049_gorczycki-grzegorz-gerwazy--salve-mundi-domina.krn
!!!cenid: 16xx:1045
!!!COM: Gorczycki, Grzegorz Gerwazy
!!!COM-rismid: pe30009207
!!!CDT: ~1666-1734/04/30
!!!CNT: Polish
!!!OTL: Salve mundi Domina
!!!PDT:
!!!AGN:
!!!SMS-siglum: PL-Kk
!!!SMS-shelfmark: Kk.I.6
!!!SMS-shelfwork: 049 W
!!!SMS-variant:
!!!SMS-altvar:
!!!NIFC-rismid: 1001136551
!!!URL-scan: http://repozytorium.nifc.pl/skany/pl-kk-nut--i-6
!!!ONB-nifc: UWAGA: C (skan 0084, s. 164-165), T (skan 0195, s. 194-195), B (skan 0308, s. 198-199) Następny utwór: Omni die dic Mariae
!!!key:
**kern	**text	**text	**text	**text	**kern	**text	**text	**text	**text	**kern	**text	**text	**text	**text
*part3	*part3	*part3	*part3	*part3	*part2	*part2	*part2	*part2	*part2	*part1	*part1	*part1	*part1	*part1
*staff3	*staff3	*staff3	*staff3	*staff3	*staff2	*staff2	*staff2	*staff2	*staff2	*staff1	*staff1	*staff1	*staff1	*staff1
*Iempty	*	*	*	*	*Itenor	*	*	*	*	*Ivox	*	*	*	*
*I"Baſsus.	*	*	*	*	*I"Tenor.	*	*	*	*	*I"Cantus.	*	*	*	*
*I'B	*	*	*	*	*I'T	*	*	*	*	*I'S	*	*	*	*
*clefF4	*	*	*	*	*clefC4	*	*	*	*	*clefC4	*	*	*	*
*k[]	*	*	*	*	*k[]	*	*	*	*	*k[]	*	*	*	*
*d:	*	*	*	*	*d:	*	*	*	*	*d:	*	*	*	*
*M2/1	*	*	*	*	*M2/1	*	*	*	*	*M2/1	*	*	*	*
*met(C|)	*	*	*	*	*met(C|)	*	*	*	*	*met(C|)	*	*	*	*
=1	=1	=1	=1	=1	=1	=1	=1	=1	=1	=1	=1	=1	=1	=1
2r	.	.	.	.	1A\	Sal-	A-	Ab	Ter-	1D/	Sal-	A-	Ab	Ter-
1D\	Sal-	A-	Ab	Ter-	.	.	.	.	.	.	.	.	.	.
.	.	.	.	.	1A\	-ve	-ve	ae-	-ram	1F/	-ve	-ve	ae-	-ram
2D/	-ve	-ve	ae-	-ram	.	.	.	.	.	.	.	.	.	.
=2-	=2-	=2-	=2-	=2-	=2-	=2-	=2-	=2-	=2-	=2-	=2-	=2-	=2-	=2-
*	*	*	*	*	*2\right	*	*	*	*	*	*	*	*	*
2C/	mun-	ple-	-ter-	pon-	2c\	mun-	ple-	-ter-	pon-	1G/	mun-	ple-	-ter-	pon-
2BB-X/	-di	-na	-no	-tum	2d\	-di	-na	-no	-tum	.	.	.	.	.
2AA/	Do-	gra-	Do-	ae-	4c\	Do-	gra-	Do-	ae-	1A\	-di	-na	-no	-tum
.	.	.	.	.	4B-X\	.	.	.	.	.	.	.	.	.
2.D/	.	.	.	.	1A\	.	.	.	.	.	.	.	.	.
=3-	=3-	=3-	=3-	=3-	=3-	=3-	=3-	=3-	=3-	=3-	=3-	=3-	=3-	=3-
*	*	*	*	*	*	*	*	*	*	*lig	*	*	*	*
.	.	.	.	.	.	.	.	.	.	1F/	Do-	gra-	Do-	ae-
4C/	.	.	.	.	.	.	.	.	.	.	.	.	.	.
4BB-X/	.	.	.	.	1d\	.	.	.	.	.	.	.	.	.
4AA/	.	.	.	.	.	.	.	.	.	.	.	.	.	.
*	*	*	*	*	*	*	*	*	*	*col	*	*	*	*
2GG/	.	.	.	.	.	.	.	.	.	2.E/	.	.	-mi-	-the-
2AA/	-mi-	-ti-	-mi-	-the-	2c#X\	-mi-	-ti-	-mi-	-the-	.	.	.	.	.
*	*	*	*	*	*	*	*	*	*	*Xlig	*	*	*	*
.	.	.	.	.	.	.	.	.	.	4E/	-mi-	-ti-	.	.
*	*	*	*	*	*	*	*	*	*	*Xcol	*	*	*	*
=4-	=4-	=4-	=4-	=4-	=4-	=4-	=4-	=4-	=4-	=4-	=4-	=4-	=4-	=4-
!	!	!	!	!	!	!	!	!	!	!LO:TX:t=P:problem=kreska pseudotaktowa	!	!	!	!
1D\	-na	-â	-nus	-ra	2d\	-na	-â	-nus	-ra	1D/	-na	-a	-nus	-ra
.	.	.	.	.	1A\	Coe-	cla-	Te	Te	.	.	.	.	.
4AA/	Coe-	cla-	Te	Te	.	.	.	.	.	1c\	Coe-	cla-	Te	Te
4BBny/	.	.	.	.	.	.	.	.	.	.	.	.	.	.
4C/	.	.	.	.	2A\	-lo-	-ra	prae-	pul-	.	.	.	.	.
4D/	.	.	.	.	.	.	.	.	.	.	.	.	.	.
=5-	=5-	=5-	=5-	=5-	=5-	=5-	=5-	=5-	=5-	=5-	=5-	=5-	=5-	=5-
*2\right	*	*	*	*	*	*	*	*	*	*	*	*	*	*
!LO:LB:g=original	!	!	!	!	!	!	!	!	!	!	!	!	!	!
2E\	-lo-	-ra	.	pul-	2A\	-rum	lux	-or-	-chram	1B\	-lo-	-ra	prae-	pul-
2E\	-rum	lux	pre-	-chram	2G#X/	Re-	Di-	-di-	or-	.	.	.	.	.
!	!	!	!	!	!LO:LB:g=original	!	!	!	!	!	!	!	!	!
4D\	Re-	Di-	-or-	or-	4A/	-gi-	-vi-	-na-	-na-	1d\	-rum	lux	-or-	-chram
4E\	.	.	.	.	4Gny/	.	.	.	.	.	.	.	.	.
4F\	.	.	.	.	4A/	.	.	.	.	.	.	.	.	.
4G\	.	.	.	.	4Bny\	.	.	.	.	.	.	.	.	.
=6-	=6-	=6-	=6-	=6-	=6-	=6-	=6-	=6-	=6-	=6-	=6-	=6-	=6-	=6-
!	!	!	!	!	!	!	!	!	!	!	!	!	!	!
4A\	.	-vi-	.	.	2cny\	.	.	.	.	1c\	Re-	Di-	-di-	or-
4AA/	.	.	.	-na-	.	.	.	.	.	.	.	.	.	.
4C/	.	.	-di-	.	2A/	-na	-na	-vit	-vit	.	.	.	.	.
4D/	.	.	.	.	.	.	.	.	.	.	.	.	.	.
!	!	!	!	!	!	!	!	!	!	!LO:LB:g=original	!	!	!	!
1E\	-gi-	.	-na-	.	1r	.	.	.	.	1B\	-gi-	-vi-	-na-	-na-
=7-	=7-	=7-	=7-	=7-	=7-	=7-	=7-	=7-	=7-	=7-	=7-	=7-	=7-	=7-
!	!	!	!	!	!	!	!	!	!	!LO:TX:t=P:problem=kreska pseudotaktowa	!	!	!	!
2AA,</	-na,	-na,	-vit.	-vit	2c\	Sal-	mun-	Ma-	ſi-	1A\	-na	-na	-vit	-vit
1F\	Sal-	mun-	Ma-	ſi-	2c\	-ve	-di	-trem	-bi	.	.	.	.	.
.	.	.	.	.	2A/	Vir-	in	u-	ſpon-	1c\	ſal-	mun-	Ma-	si-
2F\	-ve	-di	-trem	-bi	2F/	-go	au-	-ni-	-sam	.	.	.	.	.
=8-	=8-	=8-	=8-	=8-	=8-	=8-	=8-	=8-	=8-	=8-	=8-	=8-	=8-	=8-
2E\	Vir-	in	u-	ſpon-	2.c\	Vir-	-xi-	-ge-	in	1c\	-ve	-di	-trem	-bi
2C/	-go	au-	-ni-	-sam	.	.	.	.	.	.	.	.	.	.
.	.	.	.	.	4c\	-gi-	-li-	-ni-	A-	.	.	.	.	.
2D/	vir-	-xi-	-ge-	in	2F/	-num	-um	-ti	-dam	1B-X\	Vir-	in	u-	ſpon-
2E\	.	.	.	A-	4G/	Vir-	in	u-	in	.	.	.	.	.
.	.	.	.	.	4G/	-go	au-	-ni-	A-	.	.	.	.	.
=9-	=9-	=9-	=9-	=9-	=9-	=9-	=9-	=9-	=9-	=9-	=9-	=9-	=9-	=9-
!	!	!	!	!	!	!	!	!	!	!LO:TX:t=P:problem=kreska pseudotaktowa	!	!	!	!
4F\	.	.	.	.	4A/	Vir-	-xi-	-ge-	.	1A\	-go	au-	-ni-	-sam
4FF/	.	.	.	.	4B-X\	.	.	.	.	.	.	.	.	.
4AA/	.	.	.	.	1c\	.	.	.	.	.	.	.	.	.
4BB-X/	.	.	.	.	.	.	.	.	.	.	.	.	.	.
!LO:PB:g=original	!	!	!	!	!	!	!	!	!	!	!	!	!	!
2C/	.	.	.	.	.	.	.	.	.	1.G/	Vir-	-xi-	-ge-	in
2BB-X/	.	.	.	.	2G/	.	.	.	.	.	.	.	.	.
=10-	=10-	=10-	=10-	=10-	=10-	=10-	=10-	=10-	=10-	=10-	=10-	=10-	=10-	=10-
2.C/	.	.	.	.	2.c\	.	.	.	.	.	.	.	.	.
.	.	.	.	.	.	.	.	.	.	2G/	-gi-	-li-	-ni-	A-
4C/	-gi-	-li-	-ni-	-dam	4B-X\	-gi-	-li-	-ni-	.	.	.	.	.	.
!	!	!	!	!	!	!	!	!	!	!LO:TX:t=P:problem=kreska pseudotaktowa	!	!	!	!
1FF/	-num	-um	-ti	.	1A\	-num	-um	-ti	-dam	1A\,<	-num	-um	-ti	-dam
=11-	=11-	=11-	=11-	=11-	=11-	=11-	=11-	=11-	=11-	=11-	=11-	=11-	=11-	=11-
!	!	!	!	!	!LO:PB:g=original	!	!	!	!	!	!	!	!	!
1.C/	Stel-	Do-	Ver-	quae	2r	.	.	.	.	1G/	stel-	Do-	Ver-	quae
.	.	.	.	.	1c\	stel-	Do-	Ver-	quae	.	.	.	.	.
.	.	.	.	.	.	.	.	.	.	1A\	-la	-mi-	-bi	nun-
2D/	-la	-mi-	-bi	nun-	2A/	-la	-mi-	-bi	nun-	.	.	.	.	.
=12-	=12-	=12-	=12-	=12-	=12-	=12-	=12-	=12-	=12-	=12-	=12-	=12-	=12-	=12-
2BB-X/	ma-	-na	quo	-quam	2B-X\	ma-	-na	quo	-quam	1G/	ma-	-na	quo	-quam
2C/	-tu-	fes-	cre-	pec-	2G/	-tu-	fes-	cre-	pec-	.	.	.	.	.
!	!	!	!	!	!	!	!	!	!	!LO:PB:g=original	!	!	!	!
2AA/	-ti-	-ti-	-a-	-ca-	2A/	-ti-	-ti-	-a-	-ca-	1F/	-tu-	fes-	cre-	pec-
2BB-X/	.	.	.	.	2F/	.	.	.	.	.	.	.	.	.
=13-	=13-	=13-	=13-	=13-	=13-	=13-	=13-	=13-	=13-	=13-	=13-	=13-	=13-	=13-
2GG/	.	.	.	.	2B-X\	.	.	.	.	1E/	-ti-	-ti-	-a-	-ca-
2AA/	.	.	.	.	2A/	.	.	.	.	.	.	.	.	.
!LO:TX:t=P:problem=druga fermata odwórcona pod nutą	!	!	!	!	!LO:TX:t=P:problem=druga fermata odwórcona pod nutą	!	!	!	!	!LO:TX:t=P:problem=druga fermata odwórcona pod nutą	!	!	!	!
0D\;;l	-na.	-na.	-vit:	-vit.	0A\;;l	-na.	-na.	-vit:	-vit.	0D/;;l	-na.	-na.	-vit:	-vit.
==	==	==	==	==	==	==	==	==	==	==	==	==	==	==
*-	*-	*-	*-	*-	*-	*-	*-	*-	*-	*-	*-	*-	*-	*-
!!!system-decoration: [(s1,s2,s3)]
!!!AIN: 1 empty 1 tenor 1 vox
!!!ENC: Anastazja Marusiak
!!!END: 2021-10-22
!!!RDF**kern: l = terminal long
!!!RDF**kern: < = below
!!!EED: Andrzej Borzym
!!!EST: 2021-10-24
